Newaita-dark/.DP/24/simplescreenrecorder-paused.svg

<svg xmlns="http://www.w3.org/2000/svg" xmlns:xlink="http://www.w3.org/1999/xlink" width="24px" height="24px" viewBox="0 0 24 24" version="1.1">
<g id="surface1">
<path style=" stroke:none;fill-rule:nonzero;fill:rgb(93.333334%,93.333334%,93.333334%);fill-opacity:1;" d="M 3.96875 4.15625 C 2.867188 4.15625 1.984375 5.039062 1.984375 6.140625 L 1.984375 8.183594 C 1.984375 8.703125 2.429688 9.117188 2.976562 9.117188 C 3.527344 9.117188 3.96875 8.703125 3.96875 8.183594 L 3.96875 7.132812 C 3.96875 6.585938 4.414062 6.140625 4.960938 6.140625 L 5.953125 6.140625 C 6.503906 6.140625 6.945312 5.726562 6.945312 5.207031 L 6.945312 5.089844 C 6.945312 4.574219 6.503906 4.15625 5.953125 4.15625 Z M 17.859375 4.15625 C 17.3125 4.15625 16.867188 4.574219 16.867188 5.089844 L 16.867188 5.207031 C 16.867188 5.726562 17.3125 6.140625 17.859375 6.140625 L 18.851562 6.140625 C 19.402344 6.140625 19.84375 6.585938 19.84375 7.132812 L 19.84375 8.183594 C 19.84375 8.703125 20.289062 9.117188 20.835938 9.117188 C 21.386719 9.117188 21.828125 8.703125 21.828125 8.183594 L 21.828125 6.140625 C 21.828125 5.039062 20.945312 4.15625 19.84375 4.15625 Z M 2.976562 14.828125 C 2.429688 14.828125 1.984375 15.25 1.984375 15.765625 L 1.984375 17.804688 C 1.984375 18.90625 2.867188 19.792969 3.96875 19.792969 L 5.953125 19.792969 C 6.503906 19.792969 6.945312 19.375 6.945312 18.859375 L 6.945312 18.742188 C 6.945312 18.226562 6.503906 17.804688 5.953125 17.804688 L 4.960938 17.804688 C 4.414062 17.804688 3.96875 17.367188 3.96875 16.8125 L 3.96875 15.765625 C 3.96875 15.25 3.527344 14.828125 2.976562 14.828125 Z M 20.835938 14.828125 C 20.289062 14.828125 19.84375 15.25 19.84375 15.765625 L 19.84375 16.8125 C 19.84375 17.367188 19.402344 17.804688 18.851562 17.804688 L 17.859375 17.804688 C 17.3125 17.804688 16.867188 18.226562 16.867188 18.742188 L 16.867188 18.859375 C 16.867188 19.375 17.3125 19.792969 17.859375 19.792969 L 19.84375 19.792969 C 20.945312 19.792969 21.828125 18.90625 21.828125 17.804688 L 21.828125 15.765625 C 21.828125 15.25 21.386719 14.828125 20.835938 14.828125 Z M 20.835938 14.828125 "/>
<path style=" stroke:none;fill-rule:nonzero;fill:rgb(93.333334%,93.333334%,93.333334%);fill-opacity:1;" d="M 9.425781 7.628906 C 9.976562 7.628906 10.421875 8.074219 10.421875 8.621094 L 10.421875 15.570312 C 10.421875 16.117188 9.976562 16.5625 9.425781 16.5625 C 8.878906 16.5625 8.433594 16.117188 8.433594 15.570312 L 8.433594 8.621094 C 8.433594 8.074219 8.878906 7.628906 9.425781 7.628906 Z M 9.425781 7.628906 "/>
<path style=" stroke:none;fill-rule:nonzero;fill:rgb(93.333334%,93.333334%,93.333334%);fill-opacity:1;" d="M 14.390625 7.628906 C 14.9375 7.628906 15.382812 8.074219 15.382812 8.621094 L 15.382812 15.570312 C 15.382812 16.117188 14.9375 16.5625 14.390625 16.5625 C 13.839844 16.5625 13.398438 16.117188 13.398438 15.570312 L 13.398438 8.621094 C 13.398438 8.074219 13.839844 7.628906 14.390625 7.628906 Z M 14.390625 7.628906 "/>
</g>
</svg>

<svg xmlns="http://www.w3.org/2000/svg" width="24" height="24"><g fill="#bdbdbd"><path d="M3.969 4.156a1.982 1.982 0 0 0-1.985 1.985v2.043c0 .52.442.933.993.933.55 0 .992-.414.992-.933V7.133c0-.551.441-.992.992-.992h.992c.55 0 .992-.418.992-.934V5.09c0-.516-.441-.934-.992-.934zm13.89 0c-.547 0-.992.418-.992.934v.117c0 .516.445.934.992.934h.993c.55 0 .992.441.992.992v1.05c0 .52.445.934.996.934.547 0 .992-.414.992-.933V6.14a1.983 1.983 0 0 0-1.988-1.985zM2.977 14.832c-.551 0-.993.414-.993.934v2.043c0 1.097.887 1.984 1.985 1.984h1.984c.55 0 .992-.418.992-.934v-.117c0-.52-.441-.933-.992-.933h-.992a.991.991 0 0 1-.992-.993v-1.05c0-.52-.442-.934-.992-.934zm17.863 0c-.55 0-.996.414-.996.934v1.05a.991.991 0 0 1-.992.993h-.993c-.547 0-.992.414-.992.933v.117c0 .516.445.934.992.934h1.985a1.983 1.983 0 0 0 1.988-1.984v-2.043c0-.52-.445-.934-.992-.934zm0 0M9.426 7.629c.55 0 .992.445.992.992v6.945a.991.991 0 1 1-1.984 0V8.621c0-.547.445-.992.992-.992zm0 0M14.387 7.629c.55 0 .992.445.992.992v6.945a.991.991 0 1 1-1.984 0V8.621c0-.547.445-.992.992-.992zm0 0"/></g></svg>
